X: 33901
T: Red Planet Blues
R: slip jig
M: 9/8
K: Dminor
|:A2 D D2 A, CDF|G2 G GFD D2 A|G2 G GFD D2 A,|D2 F B,FC DFG|
A2 D D2 A, CDF|G2 G GFD D2 A|dB A2 CD FFD|1 FGA G2 F D3:|2 FGA z GF D3|:
AF D2 AF D2 B,|CG E2 CG E3|cAF F2 c Acd|dBG AFD D2 C|AF D2 AF D2 B,|
CG E2 CG E3|cAF F2 c Acf|1 dBG ABA GFD:|2 d6- d3||

